assets/icon.svg

<?xml version="1.0" encoding="UTF-8" standalone="no"?>
<!-- Created with Inkscape (http://www.inkscape.org/) -->

<svg
   width="1024"
   height="1024"
   viewBox="0 0 512 512"
   version="1.1"
   id="svg1"
   inkscape:version="1.4.2 (ebf0e940d0, 2025-05-08)"
   sodipodi:docname="steam-optionx.svg"
   inkscape:export-filename="steam-optionx.png"
   inkscape:export-xdpi="96"
   inkscape:export-ydpi="96"
   xmlns:inkscape="http://www.inkscape.org/namespaces/inkscape"
   xmlns:sodipodi="http://sodipodi.sourceforge.net/DTD/sodipodi-0.dtd"
   xmlns="http://www.w3.org/2000/svg"
   xmlns:svg="http://www.w3.org/2000/svg">
  <sodipodi:namedview
     id="namedview1"
     pagecolor="#ffffff"
     bordercolor="#000000"
     borderopacity="0.25"
     inkscape:showpageshadow="2"
     inkscape:pageopacity="0.0"
     inkscape:pagecheckerboard="0"
     inkscape:deskcolor="#d1d1d1"
     inkscape:document-units="px"
     showgrid="false"
     showguides="true"
     inkscape:zoom="0.70710678"
     inkscape:cx="466.69048"
     inkscape:cy="396.6869"
     inkscape:window-width="2560"
     inkscape:window-height="1368"
     inkscape:window-x="0"
     inkscape:window-y="0"
     inkscape:window-maximized="1"
     inkscape:current-layer="layer1">
    <inkscape:grid
       id="grid1"
       units="px"
       originx="0"
       originy="0"
       spacingx="1"
       spacingy="1"
       empcolor="#0099e5"
       empopacity="0.30196078"
       color="#0099e5"
       opacity="0.14901961"
       empspacing="5"
       enabled="true"
       visible="false" />
  </sodipodi:namedview>
  <defs
     id="defs1" />
  <g
     inkscape:label="Layer 1"
     inkscape:groupmode="layer"
     id="layer1">
    <path
       d="M 310.10484,0 289.54358,35.706692 H 222.3025 L 201.75917,0.02829824 A 261.77316,261.65002 0 0 0 113.66431,36.408992 L 124.36316,76.445248 76.816166,124.11935 36.578758,113.30958 A 261.77316,261.65002 0 0 0 0,201.35693 l 36.29397,21.00983 v 67.42082 L 0.02822272,310.78199 A 261.77316,261.65002 0 0 0 36.655729,398.80876 l 40.268188,-10.82006 47.547003,47.6741 -10.69116,40.00281 A 261.77316,261.65002 0 0 0 201.89516,512 l 20.56126,-35.7067 h 67.24108 l 20.54333,35.6784 a 261.77316,261.65002 0 0 0 88.09486,-36.3807 l -10.69885,-40.03625 47.54699,-47.6741 40.23742,10.80977 A 261.77316,261.65002 0 0 0 512,310.64307 l -36.29398,-21.00983 v -67.42082 l 36.26576,-20.99441 a 261.77316,261.65002 0 0 0 -36.62751,-88.02677 l -40.26819,10.82006 -47.547,-47.674097 10.69114,-40.002815 A 261.77316,261.65002 0 0 0 310.10484,0 Z M 256,125.17408 A 130.88658,130.82501 0 0 1 386.88767,256 130.88658,130.82501 0 0 1 256,386.82592 130.88658,130.82501 0 0 1 125.11233,256 130.88658,130.82501 0 0 1 256,125.17408 Z"
       style="fill:#000000;fill-opacity:1;stroke:none;stroke-width:1.30857;stroke-opacity:1"
       id="path16" />
    <text
       xml:space="preserve"
       style="font-style:normal;font-variant:normal;font-weight:bold;font-stretch:normal;font-size:245.76px;font-family:'Liberation Sans';-inkscape-font-specification:'Liberation Sans Bold';text-align:start;writing-mode:lr-tb;direction:ltr;text-anchor:start;fill:#000000;fill-opacity:1;stroke:none;stroke-width:1.28;stroke-dasharray:none;stroke-opacity:1"
       x="174.03999"
       y="340.54001"
       id="text36"><tspan
         sodipodi:role="line"
         id="tspan36"
         x="174.03999"
         y="340.54001"
         style="font-size:245.76px;stroke-width:1.28">X</tspan></text>
  </g>
</svg>

<?xml version="1.0" encoding="UTF-8"?>
<!-- Created with Inkscape (http://www.inkscape.org/) -->
<svg width="1024" height="1024" version="1.1" viewBox="0 0 512 512" xmlns="http://www.w3.org/2000/svg" xmlns:xlink="http://www.w3.org/1999/xlink">
 <defs>
  <linearGradient id="linearGradient10" x2="512" y1="256" y2="256" gradientUnits="userSpaceOnUse">
   <stop offset="0"/>
   <stop stop-opacity="0" offset="1"/>
  </linearGradient>
  <linearGradient id="linearGradient26" x1="256" x2="256" y2="512" gradientUnits="userSpaceOnUse">
   <stop stop-color="#111d2e" offset="0"/>
   <stop stop-color="#051839" offset=".21"/>
   <stop stop-color="#0a1b48" offset=".41"/>
   <stop stop-color="#132e62" offset=".58"/>
   <stop stop-color="#144b7e" offset=".74"/>
   <stop stop-color="#136497" offset=".87"/>
   <stop stop-color="#1387b8" offset="1"/>
  </linearGradient>
 </defs>
 <circle cx="256" cy="256" r="130.83" fill="#fff" stroke-width=".51825"/>
 <g fill="url(#linearGradient10)">
  <g fill="url(#linearGradient26)">
   <path d="m310.1 0-20.561 35.707h-67.241l-20.543-35.678a261.77 261.65 0 0 0-88.095 36.381l10.699 40.036-47.547 47.674-40.237-10.81a261.77 261.65 0 0 0-36.579 88.047l36.294 21.01v67.421l-36.266 20.994a261.77 261.65 0 0 0 36.628 88.027l40.268-10.82 47.547 47.674-10.691 40.003a261.77 261.65 0 0 0 88.115 36.334l20.561-35.707h67.241l20.543 35.678a261.77 261.65 0 0 0 88.095-36.381l-10.699-40.036 47.547-47.674 40.237 10.81a261.77 261.65 0 0 0 36.579-88.047l-36.294-21.01v-67.421l36.266-20.994a261.77 261.65 0 0 0-36.628-88.027l-40.268 10.82-47.547-47.674 10.691-40.003a261.77 261.65 0 0 0-88.115-36.334zm-54.105 125.17a130.89 130.83 0 0 1 130.89 130.83 130.89 130.83 0 0 1-130.89 130.83 130.89 130.83 0 0 1-130.89-130.83 130.89 130.83 0 0 1 130.89-130.83z"/>
   <text x="174.03999" y="340.54001" font-family="'Liberation Sans'" font-size="245.76px" font-weight="bold" stroke-width="1.28" xml:space="preserve"><tspan x="174.03999" y="340.54001" fill="url(#linearGradient26)" font-size="245.76px" stroke-width="1.28">X</tspan></text>
  </g>
 </g>
</svg>
